server/static/overleash.svg

<?xml version="1.0" encoding="UTF-8" standalone="no"?>
<svg
   width="60"
   height="60"
   viewBox="0 0 60 60"
   fill="none"
   version="1.1"
   id="svg63"
   sodipodi:docname="overleash.svg"
   inkscape:version="1.1.2 (0a00cf5339, 2022-02-04)"
   xmlns:inkscape="http://www.inkscape.org/namespaces/inkscape"
   xmlns:sodipodi="http://sodipodi.sourceforge.net/DTD/sodipodi-0.dtd"
   xmlns="http://www.w3.org/2000/svg"
   xmlns:svg="http://www.w3.org/2000/svg">
  <sodipodi:namedview
     id="namedview9"
     pagecolor="#ffffff"
     bordercolor="#666666"
     borderopacity="1.0"
     inkscape:pageshadow="2"
     inkscape:pageopacity="0.0"
     inkscape:pagecheckerboard="0"
     showgrid="false"
     inkscape:zoom="45.254834"
     inkscape:cx="32.957805"
     inkscape:cy="22.638466"
     inkscape:window-width="2560"
     inkscape:window-height="1328"
     inkscape:window-x="1080"
     inkscape:window-y="27"
     inkscape:window-maximized="1"
     inkscape:current-layer="svg63" />
  <defs
     id="defs67" />
  <path
     d="M29.8137 59.6273C46.2793 59.6273 59.6273 46.2793 59.6273 29.8137C59.6273 13.348 46.2793 0 29.8137 0C13.348 0 0 13.348 0 29.8137C0 46.2793 13.348 59.6273 29.8137 59.6273Z"
     fill="#1A4049"
     id="path55"
     style="fill:#666666" />
  <path
     d="m 25.554,25.5541 10.47402,0 -0.03228,-8.5193 H 17.0348 v 8.5193 8.5192 8.5155 h 8.5192 8.5193 V 34.0733 H 25.554 Z"
     fill="#ffffff"
     id="path57"
     sodipodi:nodetypes="cccccccccccc" />
  <path
     d="M34.0733 17.0348V25.5541V34.0733H42.5888V25.5541V17.0348H34.0733Z"
     fill="white"
     id="path59" />
  <path
     d="M42.5925 34.0735H34.0733V42.5928H42.5925V34.0735Z"
     fill="#817AFE"
     id="path61"
     style="fill:#000000" />
</svg>

<svg xmlns="http://www.w3.org/2000/svg" width="60" height="60" fill="none"><path d="M29.814 59.627c16.466 0 29.814-13.348 29.814-29.814S46.279 0 29.814 0 0 13.348 0 29.814s13.348 29.814 29.814 29.814z" fill="#666"/><g fill="#fff"><path d="M25.554 25.554h10.474l-.032-8.519H17.035v8.519 8.519 8.515h8.519 8.519v-8.515h-8.519z"/><path d="M34.073 17.035v8.519 8.519h8.515v-8.519-8.519h-8.515z"/></g><path d="M42.593 34.074h-8.519v8.519h8.519v-8.519z" fill="#000"/></svg>
